**kern
*staff1
*tb16
=1-
*clefG2
*k[f#c#g#d#]
*met(c)
*M4/4
8r
.
8r
.
4r
.
.
.
4r
.
.
.
4r
.
.
.
=2
1r
.
.
.
.
.
.
.
.
.
.
.
.
.
.
.
=3
2.r
.
.
.
.
.
.
.
.
.
.
.
4B/
.
.
.
=4
4g#/
.
.
.
4g#/
.
.
.
4f##/
.
.
.
4f##/
.
.
.
=5
!!linebreak:original
2g#/
.
.
.
.
.
.
.
4e/
.
.
.
4g#/
.
.
.
=6
4b\
.
.
.
4b\
.
.
.
4a#/
.
.
.
4a#/
.
.
.
=7
2b\
.
.
.
.
.
.
.
4r
.
.
.
4b\
.
.
.
=8
!!linebreak:original
4dd#\
.
.
.
8cc#\L
.
8b\J
.
4f#/
.
.
.
8g#/L
.
8a#/J
.
=9
4b\
.
.
.
2an/
.
.
.
.
.
.
.
4g#/
.
.
.
=10
4cc#\
.
.
.
4a/
.
.
.
4f#/
.
.
.
4e/
.
.
.
=11
!!linebreak:original
2b\
.
.
.
.
.
.
.
4r
.
.
.
4ddn\
.
.
.
=12
4cc#\
.
.
.
4g#/
.
.
.
4a/
.
.
.
4ccn\
.
.
.
=13
4b\
.
.
.
4f#/
.
.
.
4gn/
.
.
.
4b\
.
.
.
=14
!!linebreak:original
4a#/
.
.
.
4b\
.
.
.
4cc#\
.
.
.
4ddn\
.
.
.
=15
4ff#\
.
.
.
8ee\L
.
8ddn\J
.
8cc#\
.
8b\
.
8dd#\
.
8ee\
.
=16
(4ee#\
.
.
.
4ff#\)
.
.
.
8r
.
8b\
.
8dd#\
.
8een\
.
=17
!!linebreak:original
(4ee#\
.
.
.
4ff#\)
.
.
.
4r
.
.
.
4b\
.
.
.
=18
[4gg#\
.
.
.
8gg#\]
.
16ff#\LL
16ee\JJ
8b\
.
8b\
.
8cc#\
.
8dd#\
.
=19
4ee\
.
.
.
4r
.
.
.
4r
.
.
.
8r
.
8r
.
==
*-
